assets/media/icons/custom/monopoly.svg

<?xml version="1.0" encoding="UTF-8"?>
<svg xmlns="http://www.w3.org/2000/svg" xmlns:xlink="http://www.w3.org/1999/xlink" width="512px" height="512px" viewBox="0 0 512 512" version="1.1">
<g id="surface1">
<path style="fill:none;stroke-width:1;stroke-linecap:round;stroke-linejoin:round;stroke:rgb(0%,0%,0%);stroke-opacity:1;stroke-miterlimit:4;" d="M 36.117187 24.076172 C 37.762939 22.720459 38.943237 20.681763 37.63916 17.786865 C 34.818604 11.525391 25.709839 16.355347 18.347534 17.786865 C 10.224609 19.366333 5.768555 22.525269 8.306763 25.796631 C 9.290039 27.064087 10.746826 27.781128 12.16333 28.184326 " transform="matrix(10.666667,0,0,10.666667,0,0)"/>
<path style="fill:none;stroke-width:1;stroke-linecap:round;stroke-linejoin:round;stroke:rgb(0%,0%,0%);stroke-opacity:1;stroke-miterlimit:4;" d="M 31.039307 14.720947 L 31.039307 7.464111 C 29.065063 4.192383 23.794922 3.630249 16.880859 5.771851 C 10.506592 7.746094 8.532349 11.694946 8.532349 11.694946 C 11.804077 17.730469 11.798584 19.735474 11.798584 19.735474 " transform="matrix(10.666667,0,0,10.666667,0,0)"/>
<path style="fill:none;stroke-width:1;stroke-linecap:round;stroke-linejoin:round;stroke:rgb(0%,0%,0%);stroke-opacity:1;stroke-miterlimit:4;" d="M 37.921143 28.688599 C 34.987793 17.590942 28.276978 19.220215 21.149048 21.002197 C 13.703247 22.863647 10.78894 26.191772 12.537231 33.355591 " transform="matrix(10.666667,0,0,10.666667,0,0)"/>
<path style="fill:none;stroke-width:1;stroke-linecap:round;stroke-linejoin:round;stroke:rgb(0%,0%,0%);stroke-opacity:1;stroke-miterlimit:4;" d="M 37.093872 29.76416 C 37.858154 28.454956 40.779053 28.102295 40.365601 31.073364 C 40.051758 33.326294 38.657593 33.477539 37.921143 32.958984 C 37.582764 35.217041 33.765747 45.144653 22.108154 43.264526 C 18.66394 42.708984 16.624878 41.290283 15.460693 39.566895 " transform="matrix(10.666667,0,0,10.666667,0,0)"/>
<path style="fill:none;stroke-width:1;stroke-linecap:round;stroke-linejoin:round;stroke:rgb(0%,0%,0%);stroke-opacity:1;stroke-miterlimit:4;" d="M 18.197021 32.716187 C 15.376465 32.415527 14.887573 35.38623 13.77832 35.348511 C 12.669067 35.311157 12.499878 34.59668 12.044678 32.960815 C 12.044678 32.960815 10.657104 35.55542 11.841797 37.792969 C 13.026123 40.030518 18.272095 38.939941 20.002075 36.345337 C 22.352417 37.980835 30.005127 40.538086 30.813721 35.499023 C 31.015503 34.242187 30.828735 33.157471 30.434692 32.236816 C 30.099243 33.882202 29.065063 35.047852 27.447876 34.59668 C 25.831055 34.145508 25.454956 32.622437 22.37146 32.377808 " transform="matrix(10.666667,0,0,10.666667,0,0)"/>
<path style="fill:none;stroke-width:1;stroke-linecap:round;stroke-linejoin:round;stroke:rgb(0%,0%,0%);stroke-opacity:1;stroke-miterlimit:4;" d="M 18.065552 30.685547 C 17.783569 31.776123 18.31604 34.166016 20.246338 33.844482 C 22.277344 33.506104 22.859985 32.020386 21.976318 30.347168 " transform="matrix(10.666667,0,0,10.666667,0,0)"/>
<path style="fill:none;stroke-width:1;stroke-linecap:round;stroke-linejoin:round;stroke:rgb(0%,0%,0%);stroke-opacity:1;stroke-miterlimit:4;" d="M 25.906128 22.581665 C 27.466919 22.224243 29.741821 22.750854 30.531738 24.856567 " transform="matrix(10.666667,0,0,10.666667,0,0)"/>
<path style="fill:none;stroke-width:1;stroke-linecap:round;stroke-linejoin:round;stroke:rgb(0%,0%,0%);stroke-opacity:1;stroke-miterlimit:4;" d="M 36.975952 25.836548 L 35.156982 26.436035 " transform="matrix(10.666667,0,0,10.666667,0,0)"/>
<path style="fill:none;stroke-width:1;stroke-linecap:round;stroke-linejoin:round;stroke:rgb(0%,0%,0%);stroke-opacity:1;stroke-miterlimit:4;" d="M 35.156982 28.184326 L 37.560059 27.445679 " transform="matrix(10.666667,0,0,10.666667,0,0)"/>
<path style="fill:none;stroke-width:1;stroke-linecap:round;stroke-linejoin:round;stroke:rgb(0%,0%,0%);stroke-opacity:1;stroke-miterlimit:4;" d="M 17.540039 38.299805 C 18.102905 39.804932 22.029419 42.896851 24.447144 38.173096 " transform="matrix(10.666667,0,0,10.666667,0,0)"/>
<path style="fill:none;stroke-width:1;stroke-linecap:round;stroke-linejoin:round;stroke:rgb(0%,0%,0%);stroke-opacity:1;stroke-miterlimit:4;" d="M 15.611938 23.177124 C 17.332031 23.10791 18.140625 24.067017 18.140625 24.067017 " transform="matrix(10.666667,0,0,10.666667,0,0)"/>
<path style="fill:none;stroke-width:1;stroke-linecap:round;stroke-linejoin:round;stroke:rgb(0%,0%,0%);stroke-opacity:1;stroke-miterlimit:4;" d="M 17.206055 27.814819 C 17.206055 26.827881 16.555298 26.027344 15.752563 26.027344 C 14.949829 26.027344 14.299072 26.827881 14.299072 27.814819 C 14.299072 28.802124 14.949829 29.602661 15.752563 29.602661 C 16.555298 29.602661 17.206055 28.802124 17.206055 27.814819 Z M 17.206055 27.814819 " transform="matrix(10.666667,0,0,10.666667,0,0)"/>
<path style="fill:none;stroke-width:1;stroke-linecap:round;stroke-linejoin:round;stroke:rgb(0%,0%,0%);stroke-opacity:1;stroke-miterlimit:4;" d="M 28.231934 27.268066 C 28.231934 26.280762 27.577515 25.480591 26.770386 25.480591 C 25.963257 25.480591 25.309204 26.280762 25.309204 27.268066 C 25.309204 28.255371 25.963257 29.055542 26.770386 29.055542 C 27.577515 29.055542 28.231934 28.255371 28.231934 27.268066 Z M 28.231934 27.268066 " transform="matrix(10.666667,0,0,10.666667,0,0)"/>
</g>
</svg>

<?xml version="1.0" encoding="UTF-8"?><!-- Uploaded to: SVG Repo, www.svgrepo.com, Generator: SVG Repo Mixer Tools -->
<svg width="800px" height="800px" viewBox="0 0 48 48" id="b" xmlns="http://www.w3.org/2000/svg"><defs><style>.c{fill:none;stroke:#000000;stroke-linecap:round;stroke-linejoin:round;}</style></defs><path class="c" d="m36.1172,24.076c1.6458-1.3555,2.8259-3.3943,1.5218-6.2892-2.8204-6.2613-11.9291-1.4316-19.2916,0-8.1228,1.5794-12.579,4.7383-10.0407,8.01.9832,1.2672,2.4403,1.9844,3.8567,2.3874"/><path class="c" d="m31.0393,14.721v-7.2569c-1.9743-3.2717-7.2444-3.8338-14.1585-1.6922-6.3741,1.9743-8.3484,5.9229-8.3484,5.9229,3.2717,6.0357,3.2661,8.0406,3.2661,8.0406"/><path class="c" d="m37.9211,28.6885c-2.9332-11.0975-9.6443-9.4684-16.772-7.6864-7.4459,1.8615-10.3603,5.1896-8.6117,12.3534"/><path class="c" d="m37.0938,29.7641c.7644-1.3093,3.6853-1.6617,3.2717,1.3091-.3137,2.2532-1.7078,2.4045-2.4445,1.8859-.3383,2.2578-4.1553,12.1856-15.813,10.3054-3.444-.5555-5.4832-1.9741-6.6472-3.6975"/><path class="c" d="m18.197,32.7162c-2.8204-.3008-3.3093,2.67-4.4186,2.6324s-1.2786-.7521-1.7337-2.3879c0,0-1.3876,2.5948-.203,4.8323,1.1846,2.2375,6.4305,1.147,8.1604-1.4478,2.3503,1.6358,10.0031,4.193,10.8116-.8461.2017-1.2568.015-2.3417-.3789-3.2623-.3357,1.6453-1.3698,2.811-2.9868,2.3598s-1.9931-1.9743-5.0767-2.2187"/><path class="c" d="m18.0654,30.6855c-.282,1.0906.2506,3.4806,2.1811,3.1589,2.0307-.3384,2.6136-1.8239,1.7299-3.4973"/><path class="c" d="m25.9062,22.5815c1.5606-.3573,3.8358.1692,4.6255,2.2751"/><line class="c" x1="36.976" y1="25.8364" x2="35.1571" y2="26.436"/><line class="c" x1="35.1571" y1="28.1842" x2="37.5602" y2="27.4458"/><path class="c" d="m17.5402,38.2999c.5628,1.5049,4.4891,4.5968,6.907-.1268"/><path class="c" d="m15.6121,23.1771c1.72-.0692,2.5285.8898,2.5285.8898"/><ellipse class="c" cx="15.7527" cy="27.815" rx="1.4535" ry="1.7875"/><ellipse class="c" cx="26.7705" cy="27.2681" rx="1.4614" ry="1.7875"/></svg>
